X:1
T:Morrison, CM
T:Michael Lonneke, March 2005
T:Morrison, CM
T:Public Domain
C:Michael Lonneke, March 2005
Z:Public Domain
%%score ( 1 2 ) ( 3 4 )
L:1/8
M:4/4
K:C
V:1 treble 
V:2 treble 
V:3 bass 
V:4 bass 
V:1
 G2 [Ec]2 [Ec]2 E2 | [CF]2 [DG]2 ([DG]F) [CE]2 | [Ec]2 [DB]2 G2 ([EA]G) | ([D^F]C) [DG]6 | %4
 G2 [DA]2 [FB]2 [Ec]2 | [CE]2 [CF]2 ([DG]E) [FA]2 | [FB]2 [Ec]2 C2 [CE]2 | [B,D]2 C6 |] %8
V:2
 G2 x2 E2 x2 | x8 | x4 G2 x2 | x8 | G2 x6 | x8 | x4 C2 x2 | x2 C6 |] %8
V:3
 G,2 [C,G,]2 [C,G,]2 [B,,G,]2 | [A,,A,]2 [G,,B,]2 [B,,B,]2 [C,G,]2 | %2
 [A,,G,]2 [D,G,]2 ([E,B,]D,) [C,C]2 | [D,A,]2 [G,,B,]6 | G,2 [F,A,]2 ([E,G,]D,) [C,C]2 | %5
 [^A,,G,]2 [=A,,^A,]2 [G,,A,]2 [F,,C]2 | [D,G,]2 [C,C]2 ([E,A,]F,) G,2 | (G,F,) [C,E,]6 |] %8
V:4
 G,2 x6 | x8 | x8 | x8 | G,2 x6 | x8 | x8 | G,,2 x6 |] %8

